static/images/mobile/copyright/meta-wordmark.svg

<svg xmlns="http://www.w3.org/2000/svg" width="120" height="29"><g fill="#484848"><path d="m11.68 4.922-4.219 8.896H5.996L0 0h3.604l3.212 7.539L10.322 0h2.735l3.506 7.539L19.756 0h3.603l-5.976 13.818h-1.465L11.68 4.922M28.418 0v13.643H25.02V0h3.398M43.037 0l-4.443 6.406 6.025 7.237h-4.258l-5.4-6.397v6.397h-3.398V0h3.398v6.143L39.297 0h3.74M49.473 0v13.643h-3.399V0h3.399M59.971 5.059 64.355 0h2.959v13.643h-3.398V5.127l-3.682 4.277h-.517l-3.682-4.277v8.516h-3.398V0h2.959l4.375 5.059M80.43 11.143v2.5H70.371V0h9.922v2.5H73.77v2.861h6.22v2.5h-6.22v3.282h6.66M83.008 0h6.015c2.325 0 4.161.638 5.508 1.914 1.354 1.27 2.031 2.913 2.031 4.932 0 2.116-.686 3.779-2.06 4.99-1.367 1.204-3.32 1.807-5.859 1.807h-5.635V0m3.398 2.5v8.643h2.217c1.439 0 2.539-.394 3.301-1.182.762-.794 1.142-1.839 1.142-3.135 0-1.341-.387-2.396-1.162-3.164-.768-.775-1.875-1.162-3.32-1.162h-2.178M102.598 0v13.643h-3.399V0h3.399M113.74 0l6.055 13.643h-3.652l-1.123-2.696h-6.104l-1.016 2.696h-3.603L109.795 0h3.945m.274 8.564-2.198-5.302-2.002 5.302h4.2"/></g><g fill="#666"><path d="m38.786 19.816.387 8.186h-1.682l-.275-5.531-3.035 5.531h-.827l-1.464-5.69-1.852 5.69h-1.752l2.666-8.186h1.91l1.319 5.151 2.759-5.151h1.846M46.603 19.816l-.194 1.372H43.04l-.275 1.927h2.964l-.193 1.371h-2.965l-.299 2.151h4.249l-.194 1.365h-5.988l1.154-8.186h5.11M54.835 19.816l-.193 1.372h-2.661l-.96 6.814H49.28l.961-6.814h-2.595l.193-1.372h6.996M58.913 19.711l1.441 8.291h-1.787l-.252-1.787h-2.543l-.796 1.787H53.06l4.007-8.291h1.846m-2.637 5.338h1.893l-.434-3.621-1.459 3.621M64.937 24.475l-.241 1.658h-3.744l.229-1.658h3.756M76.983 19.816l-4.031 8.291h-.709l-1.318-5.062-2.76 5.062h-.721l-1.67-8.291h1.647l.885 4.817 2.607-4.817h.85l1.248 4.817 2.209-4.817h1.763M79.831 19.816l-1.154 8.186h-1.74l1.154-8.186h1.74M88.479 19.816l-3.673 3.698 3.181 4.488h-2.015l-3.088-4.342-.61 4.342h-1.74l1.154-8.186h1.741l-.492 3.493 3.48-3.493h2.062M91.222 19.816l-1.155 8.186h-1.74l1.154-8.186h1.741"/></g></svg>

<?xml version="1.0" encoding="UTF-8"?>
<svg version="1.1" xmlns="http://www.w3.org/2000/svg" xmlns:xlink="http://www.w3.org/1999/xlink" x="0" y="0" width="120" height="29" viewBox="0 0 120 29">
  <title>
  metawiki-wordmark
  </title>
  <g id="metawiki-wordmark">
    <g id="wikimedia">
      <path d="M11.68,4.922 L7.461,13.818 L5.996,13.818 L0,0 L3.604,0 L6.816,7.539 L10.322,0 L13.057,0 L16.563,7.539 L19.756,0 L23.359,0 L17.383,13.818 L15.918,13.818 L11.68,4.922" fill="#484848" id="path4159"/>
      <path d="M28.418,0 L28.418,13.643 L25.02,13.643 L25.02,0 L28.418,0" fill="#484848" id="path4161"/>
      <path d="M43.037,0 L38.594,6.406 L44.619,13.643 L40.361,13.643 L34.961,7.246 L34.961,13.643 L31.563,13.643 L31.563,0 L34.961,0 L34.961,6.143 L39.297,0 L43.037,0" fill="#484848" id="path4163"/>
      <path d="M49.473,0 L49.473,13.643 L46.074,13.643 L46.074,0 L49.473,0" fill="#484848" id="path4165"/>
      <path d="M59.971,5.059 L64.355,0 L67.314,0 L67.314,13.643 L63.916,13.643 L63.916,5.127 L60.234,9.404 L59.717,9.404 L56.035,5.127 L56.035,13.643 L52.637,13.643 L52.637,0 L55.596,0 L59.971,5.059" fill="#484848" id="path4167"/>
      <path d="M80.43,11.143 L80.43,13.643 L70.371,13.643 L70.371,0 L80.293,0 L80.293,2.5 L73.77,2.5 L73.77,5.361 L79.99,5.361 L79.99,7.861 L73.77,7.861 L73.77,11.143 L80.43,11.143" fill="#484848" id="path4169"/>
      <path d="M83.008,0 L89.023,0 C91.348,0 93.184,0.638 94.531,1.914 C95.885,3.184 96.562,4.827 96.562,6.846 C96.562,8.962 95.876,10.625 94.502,11.836 C93.135,13.04 91.182,13.643 88.643,13.643 L83.008,13.643 L83.008,0 M86.406,2.5 L86.406,11.143 L88.623,11.143 C90.062,11.143 91.162,10.749 91.924,9.961 C92.686,9.167 93.066,8.122 93.066,6.826 C93.066,5.485 92.679,4.43 91.904,3.662 C91.136,2.887 90.029,2.5 88.584,2.5 L86.406,2.5" fill="#484848" id="path4171"/>
      <path d="M102.598,0 L102.598,13.643 L99.199,13.643 L99.199,0 L102.598,0" fill="#484848" id="path4173"/>
      <path d="M113.74,0 L119.795,13.643 L116.143,13.643 L115.02,10.947 L108.916,10.947 L107.9,13.643 L104.297,13.643 L109.795,0 L113.74,0 M114.014,8.564 L111.816,3.262 L109.814,8.564 L114.014,8.564" fill="#484848" id="path4175"/>
    </g>
    <g id="metawiki">
      <path d="M38.786,19.816 L39.173,28.002 L37.491,28.002 L37.216,22.471 L34.181,28.002 L33.354,28.002 L31.89,22.312 L30.038,28.002 L28.286,28.002 L30.952,19.816 L32.862,19.816 L34.181,24.967 L36.94,19.816 L38.786,19.816" fill="#666666" id="path4178"/>
      <path d="M46.603,19.816 L46.409,21.188 L43.04,21.188 L42.765,23.115 L45.729,23.115 L45.536,24.486 L42.571,24.486 L42.272,26.637 L46.521,26.637 L46.327,28.002 L40.339,28.002 L41.493,19.816 L46.603,19.816" fill="#666666" id="path4180"/>
      <path d="M54.835,19.816 L54.642,21.188 L51.981,21.188 L51.021,28.002 L49.28,28.002 L50.241,21.188 L47.646,21.188 L47.839,19.816 L54.835,19.816" fill="#666666" id="path4182"/>
      <path d="M58.913,19.711 L60.354,28.002 L58.567,28.002 L58.315,26.215 L55.772,26.215 L54.976,28.002 L53.06,28.002 L57.067,19.711 L58.913,19.711 M56.276,25.049 L58.169,25.049 L57.735,21.428 L56.276,25.049" fill="#666666" id="path4184"/>
      <path d="M64.937,24.475 L64.696,26.133 L60.952,26.133 L61.181,24.475 L64.937,24.475" fill="#666666" id="path4186"/>
      <path d="M76.983,19.816 L72.952,28.107 L72.243,28.107 L70.925,23.045 L68.165,28.107 L67.444,28.107 L65.774,19.816 L67.421,19.816 L68.306,24.633 L70.913,19.816 L71.763,19.816 L73.011,24.633 L75.22,19.816 L76.983,19.816" fill="#666666" id="path4188"/>
      <path d="M79.831,19.816 L78.677,28.002 L76.937,28.002 L78.091,19.816 L79.831,19.816" fill="#666666" id="path4190"/>
      <path d="M88.479,19.816 L84.806,23.514 L87.987,28.002 L85.972,28.002 L82.884,23.66 L82.274,28.002 L80.534,28.002 L81.688,19.816 L83.429,19.816 L82.937,23.309 L86.417,19.816 L88.479,19.816" fill="#666666" id="path4192"/>
      <path d="M91.222,19.816 L90.067,28.002 L88.327,28.002 L89.481,19.816 L91.222,19.816" fill="#666666" id="path4194"/>
    </g>
  </g>
</svg>
